assets/icon/raw_icon.svg

<?xml version="1.0" encoding="utf-8"?>
<svg version="1.1" id="Layer_1" xmlns="http://www.w3.org/2000/svg" x="0px" y="0px" width="100%" viewBox="0 0 1024 1024" enable-background="new 0 0 1024 1024" xmlns:bx="https://boxy-svg.com">
  <defs>
    <bx:export>
      <bx:file format="png" path="icon.png"/>
    </bx:export>
  </defs>
  <path fill="#FEF8F0" opacity="1.000000" stroke="none" d=" M676.000000,1025.000000 C450.666656,1025.000000 225.833328,1025.000000 1.000000,1025.000000 C1.000000,683.666687 1.000000,342.333344 1.000000,1.000000 C342.333344,1.000000 683.666687,1.000000 1025.000000,1.000000 C1025.000000,342.333344 1025.000000,683.666687 1025.000000,1025.000000 C908.833313,1025.000000 792.666687,1025.000000 676.000000,1025.000000 M394.497406,324.877625 C394.497406,324.877625 394.057434,325.098511 393.375153,325.225189 C374.440735,336.018585 359.733734,350.984680 349.481720,370.203583 C341.506805,385.153717 336.758087,401.070099 336.076721,419.025391 C336.011536,421.687714 335.890411,424.350037 335.889526,427.012390 C335.874908,470.984589 335.835999,514.956848 335.887085,558.929016 C335.918427,585.906738 336.092712,612.884277 336.037079,640.731323 C338.387146,669.002747 349.428986,693.387451 369.202484,713.670959 C385.545258,730.435303 405.391602,741.087402 428.212646,747.073242 C428.222992,756.725342 428.100342,766.379944 428.288116,776.028625 C428.424530,783.036987 431.600311,785.968384 438.521973,786.041199 C442.183105,786.079773 445.844971,786.043152 449.506500,786.043335 C495.275513,786.046265 541.044495,786.050720 586.813538,786.051819 C595.197266,786.052002 598.107849,783.107544 598.094849,774.661499 C598.080200,765.175171 598.064209,755.688904 598.823853,746.057312 C623.772644,740.342773 644.905029,728.073242 661.712219,708.754700 C679.110046,688.757263 688.583801,665.440002 689.904114,637.957153 C689.937378,597.979187 689.996094,558.001221 689.995789,518.023254 C689.995605,486.376251 689.923096,454.729248 690.019836,422.167847 C689.633606,417.052612 689.697205,411.855927 688.787781,406.835449 C683.100525,375.440002 668.044861,349.764435 641.954468,330.878510 C628.699097,321.283417 613.886169,315.447357 598.079285,311.074249 C598.103088,302.441101 598.142761,293.807983 598.146545,285.174835 C598.150940,274.969482 595.339172,272.200348 585.205322,272.175598 C565.458435,272.127350 545.711670,272.030853 525.883972,271.027710 C525.794922,266.201447 525.753418,261.373749 525.608704,256.549164 C524.893311,232.699615 513.446777,218.743759 490.091949,214.015686 C482.140961,212.406036 473.978119,211.686981 465.874298,211.018799 C444.920593,209.291153 433.137299,199.675629 428.036133,180.059143 C427.217194,176.909958 425.604370,173.757858 421.415741,173.995407 C417.059570,174.242447 415.109497,177.310577 415.167725,181.024002 C415.231628,185.101624 415.781342,189.395020 417.204254,193.187317 C422.052795,206.109314 432.165527,214.261887 444.691650,218.245407 C456.453552,221.985886 468.853302,224.094650 481.130005,225.758514 C501.979584,228.584274 511.700134,238.811447 512.041260,259.630890 C512.108765,263.748627 512.712891,267.857544 512.140320,272.164246 C487.899963,272.166687 463.659546,272.153259 439.419220,272.180847 C431.765594,272.189575 428.490753,274.941315 428.334808,282.262604 C428.122925,292.209290 428.394958,302.166321 427.857178,312.690094 C417.001892,314.955231 406.284729,317.599609 396.986359,323.985962 C396.986359,323.985962 397.003906,323.916077 396.359772,323.858337 C395.877441,324.228790 395.395081,324.599243 394.997253,324.968536 C394.997253,324.968536 394.989655,324.884369 394.497406,324.877625 z"/>
  <path fill="#E58C69" opacity="1.000000" stroke="none" d=" M689.798828,638.871094 C688.583801,665.440002 679.110046,688.757263 661.712219,708.754700 C644.905029,728.073242 623.772644,740.342773 598.017639,746.081116 C594.568420,746.322449 591.925537,746.726929 589.282349,746.729736 C545.887573,746.776062 502.492706,746.809937 459.098022,746.750732 C448.810272,746.736755 438.522980,746.372314 428.235474,746.169006 C405.391602,741.087402 385.545258,730.435303 369.202484,713.670959 C349.428986,693.387451 338.387146,669.002747 336.368378,639.981201 C336.796326,638.577576 336.977539,637.924194 336.977570,637.270752 C336.980316,565.641663 336.974091,494.012573 336.926147,422.383514 C336.925201,420.957520 336.426910,419.531860 336.160675,418.106049 C336.758087,401.070099 341.506805,385.153717 349.481720,370.203583 C359.733734,350.984680 374.440735,336.018585 393.819885,325.310272 C394.506287,325.225006 394.747955,325.054688 394.989655,324.884369 C394.989655,324.884369 394.997253,324.968536 395.264069,324.933929 C396.021881,324.571564 396.512878,324.243805 397.003906,323.916077 C397.003906,323.916077 396.986359,323.985962 397.334717,323.966400 C407.423431,320.660736 417.172455,317.399750 426.886658,314.038086 C427.619781,313.784363 428.104828,312.813599 429.192810,312.166321 C471.320526,312.096436 512.960571,312.028137 554.600647,311.980743 C569.072021,311.964264 583.543396,311.999603 598.014771,312.011292 C613.886169,315.447357 628.699097,321.283417 641.954468,330.878510 C668.044861,349.764435 683.100525,375.440002 688.787781,406.835449 C689.697205,411.855927 689.633606,417.052612 689.672974,422.924133 C689.219238,424.666290 689.018860,425.652100 689.018616,426.637970 C689.001282,495.951599 688.994995,565.265259 689.030579,634.578857 C689.031311,636.009705 689.531616,637.440369 689.798828,638.871094 M607.199585,425.054535 C595.808167,420.833099 585.227051,423.704224 577.441406,433.595978 C555.513245,461.456177 533.728394,489.429199 511.859497,517.336182 C503.780914,527.645264 495.625183,537.893921 487.111359,548.667725 C480.784668,541.095215 474.905457,533.932678 468.888519,526.887817 C461.108002,517.778137 453.658966,508.325439 445.250000,499.829254 C436.857819,491.350006 422.538818,491.598145 414.318298,499.281586 C405.856384,507.190735 404.669769,521.536560 412.237640,530.619385 C430.559967,552.609558 448.973511,574.527466 467.626465,596.237122 C480.106232,610.762024 498.136841,610.001099 509.993134,595.004517 C536.110229,561.970276 562.311829,529.002930 588.413635,495.956726 C598.004211,483.814636 608.050537,471.961304 616.720703,459.183563 C625.395325,446.399414 621.358093,433.198578 607.199585,425.054535 z"/>
  <path fill="#5B5B59" opacity="1.000000" stroke="none" d=" M598.046997,311.542755 C583.543396,311.999603 569.072021,311.964264 554.600647,311.980743 C512.960571,312.028137 471.320526,312.096436 429.140747,312.122681 C428.601044,312.088806 428.459473,312.118896 428.459473,312.118896 C428.394958,302.166321 428.122925,292.209290 428.334808,282.262604 C428.490753,274.941315 431.765594,272.189575 439.419220,272.180847 C463.659546,272.153259 487.899963,272.166687 513.060547,272.100433 C517.975525,272.009186 521.970154,271.981750 525.964844,271.954315 C545.711670,272.030853 565.458435,272.127350 585.205322,272.175598 C595.339172,272.200348 598.150940,274.969482 598.146545,285.174835 C598.142761,293.807983 598.103088,302.441101 598.046997,311.542755 z"/>
  <path fill="#5B5B59" opacity="1.000000" stroke="none" d=" M428.224060,746.621094 C438.522980,746.372314 448.810272,746.736755 459.098022,746.750732 C502.492706,746.809937 545.887573,746.776062 589.282349,746.729736 C591.925537,746.726929 594.568420,746.322449 597.630127,746.153748 C598.064209,755.688904 598.080200,765.175171 598.094849,774.661499 C598.107849,783.107544 595.197266,786.052002 586.813538,786.051819 C541.044495,786.050720 495.275513,786.046265 449.506500,786.043335 C445.844971,786.043152 442.183105,786.079773 438.521973,786.041199 C431.600311,785.968384 428.424530,783.036987 428.288116,776.028625 C428.100342,766.379944 428.222992,756.725342 428.224060,746.621094 z"/>
  <path fill="#E58C69" opacity="1.000000" stroke="none" d=" M525.924438,271.491028 C521.970154,271.981750 517.975525,272.009186 513.525146,272.003601 C512.712891,267.857544 512.108765,263.748627 512.041260,259.630890 C511.700134,238.811447 501.979584,228.584274 481.130005,225.758514 C468.853302,224.094650 456.453552,221.985886 444.691650,218.245407 C432.165527,214.261887 422.052795,206.109314 417.204254,193.187317 C415.781342,189.395020 415.231628,185.101624 415.167725,181.024002 C415.109497,177.310577 417.059570,174.242447 421.415741,173.995407 C425.604370,173.757858 427.217194,176.909958 428.036133,180.059143 C433.137299,199.675629 444.920593,209.291153 465.874298,211.018799 C473.978119,211.686981 482.140961,212.406036 490.091949,214.015686 C513.446777,218.743759 524.893311,232.699615 525.608704,256.549164 C525.753418,261.373749 525.794922,266.201447 525.924438,271.491028 z"/>
  <path fill="#DE6732" opacity="1.000000" stroke="none" d=" M336.118713,418.565735 C336.426910,419.531860 336.925201,420.957520 336.926147,422.383514 C336.974091,494.012573 336.980316,565.641663 336.977570,637.270752 C336.977539,637.924194 336.796326,638.577576 336.451233,639.546509 C336.092712,612.884277 335.918427,585.906738 335.887085,558.929016 C335.835999,514.956848 335.874908,470.984589 335.889526,427.012390 C335.890411,424.350037 336.011536,421.687714 336.118713,418.565735 z"/>
  <path fill="#DE6732" opacity="1.000000" stroke="none" d=" M689.851440,638.414124 C689.531616,637.440369 689.031311,636.009705 689.030579,634.578857 C688.994995,565.265259 689.001282,495.951599 689.018616,426.637970 C689.018860,425.652100 689.219238,424.666290 689.604370,423.381348 C689.923096,454.729248 689.995605,486.376251 689.995789,518.023254 C689.996094,558.001221 689.937378,597.979187 689.851440,638.414124 z"/>
  <path fill="#DE6732" opacity="1.000000" stroke="none" d=" M428.158325,312.404480 C428.459473,312.118896 428.601044,312.088806 428.653107,312.132477 C428.104828,312.813599 427.619781,313.784363 426.886658,314.038086 C417.172455,317.399750 407.423431,320.660736 397.301575,323.952240 C406.284729,317.599609 417.001892,314.955231 428.158325,312.404480 z"/>
  <path fill="#DE6732" opacity="1.000000" stroke="none" d=" M396.681824,323.887207 C396.512878,324.243805 396.021881,324.571564 395.221802,324.934509 C395.395081,324.599243 395.877441,324.228790 396.681824,323.887207 z"/>
  <path fill="#DE6732" opacity="1.000000" stroke="none" d=" M394.743530,324.880981 C394.747955,325.054688 394.506287,325.225006 394.161011,325.246948 C394.057434,325.098511 394.497406,324.877625 394.743530,324.880981 z"/>
  <path fill="#5B5B59" opacity="1.000000" stroke="none" d=" M607.539185,425.229034 C621.358093,433.198578 625.395325,446.399414 616.720703,459.183563 C608.050537,471.961304 598.004211,483.814636 588.413635,495.956726 C562.311829,529.002930 536.110229,561.970276 509.993134,595.004517 C498.136841,610.001099 480.106232,610.762024 467.626465,596.237122 C448.973511,574.527466 430.559967,552.609558 412.237640,530.619385 C404.669769,521.536560 405.856384,507.190735 414.318298,499.281586 C422.538818,491.598145 436.857819,491.350006 445.250000,499.829254 C453.658966,508.325439 461.108002,517.778137 468.888519,526.887817 C474.905457,533.932678 480.784668,541.095215 487.111359,548.667725 C495.625183,537.893921 503.780914,527.645264 511.859497,517.336182 C533.728394,489.429199 555.513245,461.456177 577.441406,433.595978 C585.227051,423.704224 595.808167,420.833099 607.539185,425.229034 z"/>
</svg>

<?xml version="1.0" encoding="UTF-8" standalone="no"?>
<svg
   version="1.1"
   id="Layer_1"
   x="0px"
   y="0px"
   width="100%"
   viewBox="0 0 1024 1024"
   enable-background="new 0 0 1024 1024"
   sodipodi:docname="raw_icon.svg"
   inkscape:export-filename="icon_32.png"
   inkscape:export-xdpi="3"
   inkscape:export-ydpi="3"
   inkscape:version="1.4.2 (ebf0e940d0, 2025-05-08)"
   xmlns:inkscape="http://www.inkscape.org/namespaces/inkscape"
   xmlns:sodipodi="http://sodipodi.sourceforge.net/DTD/sodipodi-0.dtd"
   xmlns="http://www.w3.org/2000/svg"
   xmlns:svg="http://www.w3.org/2000/svg"
   xmlns:bx="https://boxy-svg.com">
  <sodipodi:namedview
     id="namedview10"
     pagecolor="#ffffff"
     bordercolor="#000000"
     borderopacity="0.25"
     inkscape:showpageshadow="2"
     inkscape:pageopacity="0.0"
     inkscape:pagecheckerboard="0"
     inkscape:deskcolor="#d1d1d1"
     inkscape:zoom="0.43115234"
     inkscape:cx="517.21857"
     inkscape:cy="140.32163"
     inkscape:window-width="1920"
     inkscape:window-height="1134"
     inkscape:window-x="0"
     inkscape:window-y="0"
     inkscape:window-maximized="1"
     inkscape:current-layer="Layer_1" />
  <defs
     id="defs1">
    <bx:export>
      <bx:file
         format="png"
         path="icon.png" />
      <bx:file
         format="png"
         href="#object-0"
         path="無題.png" />
    </bx:export>
  </defs>
  <g
     transform="matrix(1.5037403,0,0,1.5037403,-272.19603,-221.30696)"
     id="object-0">
    <g
       id="g5">
      <path
         fill="#e58c69"
         opacity="1"
         stroke="none"
         d="m 689.79883,638.87109 c -1.21503,26.56891 -10.68878,49.88617 -28.08661,69.88361 -16.80719,19.31854 -37.93958,31.58807 -63.69458,37.32642 -3.44922,0.24133 -6.0921,0.64581 -8.73529,0.64862 -43.39478,0.0463 -86.78964,0.0802 -130.18433,0.021 -10.28775,-0.014 -20.57504,-0.37842 -30.86255,-0.58172 -22.84387,-5.08161 -42.69021,-15.73371 -59.03299,-32.49805 -19.77349,-20.28351 -30.81533,-44.66821 -32.8341,-73.68976 0.42795,-1.40362 0.60916,-2.05701 0.60919,-2.71045 0.003,-71.62909 -0.003,-143.25818 -0.0514,-214.88724 -9.5e-4,-1.42599 -0.49924,-2.85165 -0.76547,-4.27746 0.59741,-17.03595 5.34612,-32.95233 13.32104,-47.90247 10.25201,-19.2189 24.95902,-34.185 44.33816,-44.89331 0.68641,-0.0853 0.92807,-0.25558 1.16978,-0.4259 0,0 0.008,0.0842 0.27441,0.0496 0.75781,-0.36237 1.24881,-0.69013 1.73984,-1.01785 0,0 -0.0176,0.0699 0.33081,0.0503 10.08871,-3.30566 19.83774,-6.56665 29.55194,-9.92831 0.73312,-0.25373 1.21817,-1.22449 2.30615,-1.87177 42.12772,-0.0699 83.76776,-0.13818 125.40784,-0.18558 14.47137,-0.0165 28.94275,0.0189 43.41412,0.0305 15.8714,3.43607 30.68433,9.27213 43.9397,18.86722 26.09039,18.88592 41.14605,44.56149 46.83331,75.95694 0.90943,5.02048 0.84583,10.21716 0.88519,16.08868 -0.45373,1.74216 -0.65411,2.72797 -0.65435,3.71384 -0.0173,69.31363 -0.0236,138.62729 0.012,207.94089 7.3e-4,1.43085 0.50104,2.86151 0.76825,4.29223 M 607.19958,425.05453 c -11.39141,-4.22143 -21.97253,-1.35031 -29.75817,8.54145 -21.92817,27.8602 -43.71302,55.83322 -65.58191,83.7402 -8.07859,10.30908 -16.23432,20.55774 -24.74814,31.33155 -6.32669,-7.57251 -12.2059,-14.73505 -18.22284,-21.77991 -7.78052,-9.10968 -15.22955,-18.56238 -23.63852,-27.05857 -8.39218,-8.47924 -22.71118,-8.23111 -30.9317,-0.54766 -8.46192,7.90915 -9.64853,22.25497 -2.08066,31.33779 18.32233,21.99018 36.73587,43.90809 55.38882,65.61774 12.47977,14.5249 30.51038,13.76398 42.36667,-1.2326 26.1171,-33.03424 52.3187,-66.00159 78.4205,-99.04779 9.59058,-12.14209 19.63691,-23.99543 28.30707,-36.77317 8.67462,-12.78415 4.63739,-25.98498 -9.52112,-34.12903 z"
         id="path1" />
      <path
         fill="#5b5b59"
         opacity="1"
         stroke="none"
         d="m 598.047,311.54275 c -14.5036,0.45685 -28.97498,0.42151 -43.44635,0.43799 -41.64008,0.0474 -83.28012,0.1157 -125.4599,0.14194 -0.53971,-0.0339 -0.68128,-0.004 -0.68128,-0.004 -0.0645,-9.95258 -0.33655,-19.90961 -0.12466,-29.8563 0.15594,-7.32129 3.43078,-10.07303 11.08441,-10.08175 24.24033,-0.0276 48.48074,-0.0142 73.64133,-0.0804 4.91497,-0.0912 8.9096,-0.11868 12.90429,-0.14612 19.74683,0.0765 39.49359,0.17304 59.24048,0.22129 10.13385,0.0248 12.94562,2.79388 12.94122,12.99923 -0.004,8.63315 -0.0435,17.26627 -0.0995,26.36792 z"
         id="path2" />
      <path
         fill="#5b5b59"
         opacity="1"
         stroke="none"
         d="m 428.22406,746.62109 c 10.29892,-0.24878 20.58621,0.11567 30.87396,0.12964 43.39469,0.0592 86.78955,0.0253 130.18433,-0.021 2.64319,-0.003 5.28607,-0.40729 8.34778,-0.57599 0.43408,9.53515 0.45007,19.02142 0.46472,28.50775 0.013,8.44604 -2.89758,11.3905 -11.28131,11.39032 -45.76905,-0.001 -91.53803,-0.006 -137.30704,-0.008 -3.66153,-1.8e-4 -7.3234,0.0364 -10.98453,-0.002 -6.92166,-0.0728 -10.09744,-3.00421 -10.23385,-10.01257 -0.18778,-9.64869 -0.0651,-19.30329 -0.0641,-29.40754 z"
         id="path3" />
      <path
         fill="#e58c69"
         opacity="1"
         stroke="none"
         d="m 525.92444,271.49103 c -3.95429,0.49072 -7.94892,0.51816 -12.39929,0.51257 -0.81226,-4.14606 -1.41639,-8.25497 -1.48389,-12.37271 -0.34113,-20.81944 -10.06168,-31.04662 -30.91126,-33.87238 -12.2767,-1.66386 -24.67645,-3.77262 -36.43835,-7.5131 -12.52612,-3.98352 -22.63886,-12.1361 -27.4874,-25.05809 -1.42291,-3.7923 -1.97262,-8.0857 -2.03652,-12.16332 -0.0582,-3.71342 1.89184,-6.78155 6.24801,-7.02859 4.18863,-0.23755 5.80145,2.91455 6.62039,6.06373 5.10117,19.61649 16.88446,29.23201 37.83817,30.95966 8.10382,0.66818 16.26666,1.38724 24.21765,2.99689 23.35483,4.72807 34.80136,18.68392 35.51675,42.53347 0.14472,4.82459 0.18622,9.65229 0.31574,14.94187 z"
         id="path4" />
      <path
         fill="#5b5b59"
         opacity="1"
         stroke="none"
         d="m 607.53918,425.22903 c 13.81891,7.96955 17.85614,21.17038 9.18152,33.95453 -8.67016,12.77774 -18.71649,24.63108 -28.30707,36.77317 -26.1018,33.0462 -52.3034,66.01355 -78.4205,99.04779 -11.85629,14.99658 -29.8869,15.7575 -42.36667,1.2326 -18.65295,-21.70965 -37.06649,-43.62756 -55.38882,-65.61774 -7.56787,-9.08282 -6.38126,-23.42864 2.08066,-31.33779 8.22052,-7.68345 22.53952,-7.93158 30.9317,0.54766 8.40897,8.49619 15.858,17.94889 23.63852,27.05857 6.01694,7.04486 11.89615,14.2074 18.22284,21.77991 8.51382,-10.77381 16.66955,-21.02247 24.74814,-31.33155 21.86889,-27.90698 43.65374,-55.88 65.58191,-83.7402 7.78564,-9.89176 18.36676,-12.76288 30.09777,-8.36695 z"
         id="path5" />
    </g>
    <path
       fill="#de6732"
       opacity="1"
       stroke="none"
       d="m 336.11871,418.56574 c 0.3082,0.96612 0.80649,2.39178 0.80744,3.81777 0.0479,71.62906 0.0542,143.25815 0.0514,214.88724 -3e-5,0.65344 -0.18124,1.30683 -0.52634,2.27576 -0.35852,-26.66223 -0.5328,-53.63977 -0.56414,-80.61749 -0.0511,-43.97217 -0.0122,-87.94443 0.002,-131.91663 8.8e-4,-2.66235 0.12201,-5.32468 0.22918,-8.44665 z"
       id="path6" />
    <path
       fill="#de6732"
       opacity="1"
       stroke="none"
       d="m 689.85144,638.41412 c -0.31982,-0.97375 -0.82013,-2.40441 -0.82086,-3.83526 -0.0356,-69.3136 -0.0293,-138.62726 -0.012,-207.94089 2.4e-4,-0.98587 0.20062,-1.97168 0.58575,-3.25662 0.31873,31.3479 0.39123,62.9949 0.39142,94.6419 3e-4,39.97797 -0.0584,79.95594 -0.14435,120.39087 z"
       id="path7" />
    <path
       fill="#de6732"
       opacity="1"
       stroke="none"
       d="m 428.15832,312.40448 c 0.30115,-0.28558 0.44272,-0.31567 0.49479,-0.272 -0.54828,0.68112 -1.03333,1.65188 -1.76645,1.90561 -9.7142,3.36166 -19.46323,6.62265 -29.58508,9.91415 8.98315,-6.35263 19.70031,-8.99701 30.85674,-11.54776 z"
       id="path8" />
    <path
       fill="#de6732"
       opacity="1"
       stroke="none"
       d="m 396.68182,323.88721 c -0.16894,0.35659 -0.65994,0.68435 -1.46002,1.0473 0.17328,-0.33527 0.65564,-0.70572 1.46002,-1.0473 z"
       id="path9" />
    <path
       fill="#de6732"
       opacity="1"
       stroke="none"
       d="m 394.74353,324.88098 c 0.004,0.17371 -0.23724,0.34403 -0.58252,0.36597 -0.10358,-0.14844 0.3364,-0.36932 0.58252,-0.36597 z"
       id="path10" />
  </g>
</svg>
